X:1
T:Title
%%score { ( 1 3 ) | ( 2 4 ) }
L:1/8
M:6/8
K:Ab
V:1 treble nm="Grand Piano"
V:3 treble 
V:2 bass 
V:4 bass 
V:1
 z3 z2[Q:1/4=100] [CA]/[DB]/ | z3 z2 .F | [CA]3- [CA]2 [CA]/[DB]/ | [Ec]>[DB][CA] [EA]>[DG][CA] | %4
 [EB]3- [EB]2 [CA]/[DB]/ | [Ec]>[=D_c][E=c] [CA]2 [EA] | [FB]>[FA][DF] [CE]2 [EA]/[FB]/ | %7
 c>BA E2 B |[M:5/8] [CA]-[CA]- [CA]3 |[M:1/8] G/A/ |[M:3/4] B>=A B[Fd]- [Fd]/c/B | %11
 [CA]2 [DB] [Ec]2 [Ec] | [EB]>[=Dc] [B,DB][CDA]- [CDA]/[B,DG]/[A,DF] | %13
[M:7/8] [G,E]2 [Fd] [Fd]3 [CA]/[DB]/ |[M:3/4] [Ec]>[=D_c] [E=c] [CA]2 [EA]/[EA]/ | z2 z2 z .[EA] | %16
 c>B A E2 B |[M:5/8] [CA]-[CA]- [CA]3 |] %18
V:2
 z3 z2 [A,,E,]/[A,,E,]/ | [A,,A,]>[A,,A,][A,,A,] [A,,A,]2 [A,,A,] | %2
 [A,,E,]3- [A,,E,]2 [A,,E,]/[A,,E,]/ | [A,,A,]>[A,,A,][A,,A,] [C,A,]>[B,,E,][A,,E,] | %4
 [E,G,]3- [E,G,]2 [A,,A,] | [A,,A,]>[A,,A,][A,,A,] [A,,E,]2 [C,A,] | %6
 [D,A,]2 [D,A,] [A,,A,]2 [C,A,]/[D,A,]/ | [E,A,E]>[E,DE][E,CE] [E,B,D]2 [E,G,D] | %8
[M:5/8] [A,,A,]-[A,,A,]- [A,,A,]3 |[M:1/8] [E,B,]/[E,C]/ | %10
[M:3/4] [E,D]>[E,C] .[E,D]2 z/ E/[E,G,D] | [A,,A,]2 [A,,E,] [A,,A,]2 [A,,A,] | %12
 [D,G,]>[B,,A,] B,,B,,- B,,/B,,/B,, |[M:7/8] E,2 [E,G,] [E,G,]3 [A,,A,] | %14
[M:3/4] [A,,A,]>[A,,A,] [A,,A,] [A,,E,]2 [C,A,]/[C,A,]/ | [D,A,]>[D,A,] [A,,A,] [A,,A,]2 C,/D,/ | %16
 [E,A,E]>[E,DE] [E,CE] [E,B,D]2 [E,G,D] |[M:5/8] [A,,A,]-[A,,A,]- [A,,A,]3 |] %18
V:3
 x6 | [Ec]>[DB][CA] [CE]2 C/-[CE]/ | x6 | x6 | x6 | x6 | x6 | x6 |[M:5/8] x5 |[M:1/8] x | %10
[M:3/4] x6 | x6 | x6 |[M:7/8] x7 |[M:3/4] x6 | [FB]>[FA] [DF] [CE]2 A,/-[A,FB]/ | x6 |[M:5/8] x5 |] %18
V:4
 x6 | x6 | x6 | x6 | x6 | x6 | x6 | x6 |[M:5/8] x5 |[M:1/8] x |[M:3/4] z2 z .E,3 | x6 | x6 | %13
[M:7/8] x7 |[M:3/4] x6 | x6 | x6 |[M:5/8] x5 |] %18

